libs/icons/src/svg/favorite.svg

<svg width="16" height="16" viewBox="0 0 16 16" fill="none" xmlns="http://www.w3.org/2000/svg">
<path fill-rule="evenodd" clip-rule="evenodd" d="M1.4 2C3.2 0.200002 6.13333 0.200002 8 2C8 2 8 2 8 2.06667C8 2.06667 8 2.06667 8 2C9.8 0.200002 12.8 0.200002 14.6 2C16.4 3.8 16.4 6.8 14.6 8.6L8.46667 14.7333C8.33333 14.8667 8.2 14.9333 8 14.9333C7.8 14.9333 7.66667 14.8667 7.53333 14.7333L1.4 8.6C-0.466667 6.8 -0.466667 3.86667 1.4 2ZM7 3C5.66667 1.66667 3.6 1.66667 2.26667 3C0.933333 4.33333 0.933333 6.4 2.26667 7.73334L7.93333 13.4L13.6 7.73334C14.9333 6.4 14.9333 4.33333 13.6 3C12.2667 1.66667 10.2 1.66667 8.86667 3C8.8 3.13334 8.66667 3.33333 8.53333 3.46667C8.4 3.66667 8.2 3.73334 8 3.73334C7.8 3.73334 7.6 3.6 7.46667 3.46667C7.33333 3.33333 7.2 3.13334 7 3Z" fill="#202327"/>
</svg>

<svg xmlns="http://www.w3.org/2000/svg" viewBox="0 0 16 16" class="sageicon"><path fill-rule="evenodd" d="M1.4 2C3.2.2 6.133.2 8 2v.067V2C9.8.2 12.8.2 14.6 2c1.8 1.8 1.8 4.8 0 6.6l-6.133 6.133a.605.605 0 0 1-.467.2.605.605 0 0 1-.467-.2L1.4 8.6C-.467 6.8-.467 3.867 1.4 2ZM7 3C5.667 1.667 3.6 1.667 2.267 3c-1.334 1.333-1.334 3.4 0 4.733L7.933 13.4 13.6 7.733c1.333-1.333 1.333-3.4 0-4.733-1.333-1.333-3.4-1.333-4.733 0-.067.133-.2.333-.334.467-.133.2-.333.266-.533.266s-.4-.133-.533-.266C7.333 3.333 7.2 3.133 7 3Z"/></svg>
